packages/foundations/assets/icons/functional/images/business & payment/sepa_20.svg

<svg width="20" height="20" viewBox="0 0 20 20" fill="none" xmlns="http://www.w3.org/2000/svg">
<g clip-path="url(#clip0_184_89)">
<path fill-rule="evenodd" clip-rule="evenodd" d="M15.5103 13.2574L15.5463 13.3414L16.8743 17.3414C16.9145 17.4602 16.9085 17.5897 16.8577 17.7043C16.8069 17.8189 16.7148 17.9102 16.5999 17.9602C16.4849 18.0101 16.3553 18.015 16.2369 17.974C16.1184 17.9329 16.0197 17.8488 15.9603 17.7384L15.9253 17.6554L15.5733 16.5984H14.4293L14.0223 17.6754C13.9809 17.7849 13.9024 17.8765 13.8004 17.934C13.6984 17.9916 13.5795 18.0116 13.4643 17.9904L13.3773 17.9664C13.268 17.9248 13.1767 17.8462 13.1193 17.7443C13.0619 17.6423 13.0421 17.5235 13.0633 17.4084L13.0873 17.3214L14.6043 13.3214C14.6381 13.232 14.6968 13.1542 14.7734 13.0971C14.8501 13.04 14.9415 13.0061 15.0368 12.9993C15.1322 12.9926 15.2274 13.0133 15.3113 13.0591C15.3953 13.1048 15.4643 13.1736 15.5103 13.2574ZM11.8403 12.9984C12.8023 12.9984 13.3443 13.5404 13.3443 14.5534C13.3443 15.5114 12.8693 16.0334 11.9993 16.0884L11.8413 16.0934H11.2093L11.2103 17.4984C11.2104 17.6154 11.1693 17.7288 11.0944 17.8187C11.0195 17.9086 10.9154 17.9693 10.8003 17.9904L10.7103 17.9984C10.5933 17.9985 10.48 17.9574 10.3901 17.8825C10.3002 17.8076 10.2394 17.7035 10.2183 17.5884L10.2103 17.4984V13.4984C10.2103 13.3814 10.2513 13.2681 10.3262 13.1782C10.4011 13.0883 10.5052 13.0275 10.6203 13.0064L10.7103 12.9984H11.8403ZM4.59531 12.9984C5.03231 12.9984 5.45331 13.0974 5.80231 13.2654C5.91791 13.3253 6.00559 13.4279 6.0467 13.5515C6.08781 13.675 6.07911 13.8097 6.02245 13.9269C5.9658 14.0442 5.86565 14.1347 5.7433 14.1792C5.62096 14.2237 5.48607 14.2188 5.36731 14.1654C5.1254 14.0536 4.8618 13.9966 4.59531 13.9984C4.33431 13.9984 4.25531 14.0694 4.25531 14.2314C4.25531 14.4194 4.37031 14.5704 4.75331 14.8394L5.02931 15.0254C5.90331 15.5934 6.23231 15.9324 6.23231 16.6274C6.23231 17.4394 5.55931 17.9984 4.66531 17.9984C4.2011 17.9984 3.7451 17.8759 3.34331 17.6434C3.2294 17.5755 3.14713 17.4652 3.11459 17.3366C3.08205 17.208 3.10192 17.0718 3.16981 16.9579C3.23771 16.844 3.34807 16.7617 3.47663 16.7292C3.60519 16.6967 3.7414 16.7165 3.85531 16.7844C4.07431 16.9144 4.37231 16.9984 4.66531 16.9984C5.04331 16.9984 5.23231 16.8414 5.23231 16.6284C5.23231 16.4484 5.11931 16.3014 4.74231 16.0374L4.47131 15.8544C3.58731 15.2794 3.25431 14.9364 3.25431 14.2314C3.25431 13.4904 3.80631 12.9984 4.59431 12.9984H4.59531ZM9.20131 12.9984C9.32626 12.9982 9.44676 13.0447 9.5391 13.1289C9.63143 13.2131 9.6889 13.3288 9.70019 13.4532C9.71148 13.5777 9.67577 13.7018 9.60009 13.8012C9.52442 13.9007 9.41426 13.9682 9.29131 13.9904L9.20131 13.9984H7.65431V14.9024H8.82931C8.95529 14.9007 9.07728 14.9466 9.17088 15.0309C9.26449 15.1152 9.32281 15.2318 9.33418 15.3572C9.34555 15.4827 9.30914 15.6078 9.23222 15.7076C9.1553 15.8074 9.04355 15.8745 8.91931 15.8954L8.82931 15.9034L7.65431 15.9024V16.9984H9.28931C9.40634 16.9984 9.51967 17.0394 9.60957 17.1143C9.69947 17.1892 9.76025 17.2933 9.78131 17.4084L9.78931 17.4984C9.78935 17.6154 9.74834 17.7288 9.67342 17.8187C9.5985 17.9086 9.49443 17.9693 9.37931 17.9904L9.28931 17.9984H7.15531C7.03829 17.9985 6.92495 17.9574 6.83505 17.8825C6.74515 17.8076 6.68438 17.7035 6.66331 17.5884L6.65531 17.4984V13.4984C6.65527 13.3814 6.69628 13.2681 6.7712 13.1782C6.84612 13.0883 6.9502 13.0275 7.06531 13.0064L7.15531 12.9984H9.20131ZM15.0393 14.9904L14.8093 15.5984H15.2413L15.0393 14.9904ZM11.8413 13.9984H11.2093V15.0934H11.8413C12.2623 15.0934 12.3443 15.0134 12.3443 14.5534C12.3443 14.1304 12.2643 14.0164 11.9373 14.0004L11.8413 13.9984ZM13.9883 1.99841C15.0813 1.99841 15.9883 2.90441 15.9883 3.99841V8.97841C15.9883 10.0724 15.0813 10.9784 13.9883 10.9784H6.00131C4.90731 10.9784 4.00131 10.0724 4.00131 8.97841V3.99841C4.00131 2.90441 4.90731 1.99841 6.00131 1.99841H13.9883ZM14.0013 3.99841H6.00131V8.99841H14.0013V3.99841ZM11.0013 6.99841V7.99841H7.00131V6.99841H11.0013Z" fill="#1A1C1F"/>
</g>
<defs>
<clipPath id="clip0_184_89">
<rect width="20" height="20" fill="white"/>
</clipPath>
</defs>
</svg>

<svg xmlns="http://www.w3.org/2000/svg" width="20" height="20" fill="none"><g clip-path="url(#a)"><path fill="#1A1C1F" fill-rule="evenodd" d="m15.51 13.257.036.084 1.328 4a.5.5 0 0 1-.914.397l-.035-.083-.352-1.057H14.43l-.407 1.077a.5.5 0 0 1-.558.315l-.087-.024a.5.5 0 0 1-.314-.558l.024-.087 1.517-4a.5.5 0 0 1 .906-.064m-3.67-.259c.962 0 1.504.542 1.504 1.555 0 .958-.475 1.48-1.345 1.535l-.158.005h-.632l.001 1.405a.5.5 0 0 1-.41.492l-.09.008a.5.5 0 0 1-.492-.41l-.008-.09v-4a.5.5 0 0 1 .41-.492l.09-.008zm-7.245 0c.437 0 .858.1 1.207.267a.5.5 0 0 1-.435.9 1.8 1.8 0 0 0-.772-.167c-.26 0-.34.071-.34.233 0 .188.115.34.498.608l.276.186c.874.568 1.203.907 1.203 1.602 0 .812-.673 1.371-1.567 1.371a2.64 2.64 0 0 1-1.322-.355.5.5 0 1 1 .512-.859c.22.13.517.214.81.214.378 0 .567-.157.567-.37 0-.18-.113-.327-.49-.59l-.27-.184c-.885-.575-1.218-.918-1.218-1.623 0-.74.552-1.233 1.34-1.233zm4.606 0a.5.5 0 0 1 .09.992l-.09.008H7.654v.904H8.83a.5.5 0 0 1 .09.993l-.09.008H7.654v1.095H9.29a.5.5 0 0 1 .492.41l.008.09a.5.5 0 0 1-.41.492l-.09.008H7.155a.5.5 0 0 1-.492-.41l-.008-.09v-4a.5.5 0 0 1 .41-.492l.09-.008zm5.838 1.992-.23.608h.432zm-3.198-.992h-.632v1.095h.632c.421 0 .503-.08.503-.54 0-.423-.08-.537-.407-.553zm2.147-12c1.093 0 2 .906 2 2v4.98c0 1.094-.907 2-2 2H6.001c-1.094 0-2-.906-2-2v-4.98c0-1.094.906-2 2-2zm.013 2h-8v5h8zm-3 3v1h-4v-1z" clip-rule="evenodd"/></g><defs><clipPath id="a"><path fill="#fff" d="M0 0h20v20H0z"/></clipPath></defs></svg>
